static/img/menus/ico-view-alert.svg

<svg width="20" height="20" viewBox="0 0 20 20" fill="none" xmlns="http://www.w3.org/2000/svg">
<path d="M4.92102 15L5.80002 6.794C5.88602 6.582 6.27169 6.388 6.95702 6.212C7.62322 6.09897 8.29589 6.02817 8.97102 6H10.986C11.6611 6.02817 12.3338 6.09897 13 6.212C13.686 6.38867 14.0717 6.58267 14.157 6.794L15.079 15M7.00002 13.729L7.51402 8.911Z" fill="#FF3D00"/>
<path d="M4.92102 15L5.80002 6.794C5.88602 6.582 6.27169 6.388 6.95702 6.212C7.62322 6.09897 8.29589 6.02817 8.97102 6H10.986C11.6611 6.02817 12.3338 6.09897 13 6.212C13.686 6.38867 14.0717 6.58267 14.157 6.794L15.079 15M7.00002 13.729L7.51402 8.911" stroke="white" stroke-linecap="round" stroke-linejoin="round"/>
<path d="M15.501 16H4.50098C4.22483 16 4.00098 16.2239 4.00098 16.5C4.00098 16.7761 4.22483 17 4.50098 17H15.501C15.7771 17 16.001 16.7761 16.001 16.5C16.001 16.2239 15.7771 16 15.501 16Z" fill="#2651FF"/>
<path d="M15.501 15.5H4.50098C3.94869 15.5 3.50098 15.9477 3.50098 16.5C3.50098 17.0523 3.94869 17.5 4.50098 17.5H15.501C16.0533 17.5 16.501 17.0523 16.501 16.5C16.501 15.9477 16.0533 15.5 15.501 15.5Z" stroke="white"/>
<path d="M3.50098 4.5L4.50098 5.5" stroke="#FFA200" stroke-linecap="round"/>
<path d="M16.501 4.5L15.501 5.5" stroke="#FFA200" stroke-linecap="round"/>
<path d="M10.001 2.5V4.5" stroke="#FFA200" stroke-linecap="round"/>
<path d="M18.501 10.5H16.501" stroke="#FFA200" stroke-linecap="round"/>
<path d="M3.5 10.5H1.5" stroke="#FFA200" stroke-linecap="round"/>
</svg>

<svg xmlns="http://www.w3.org/2000/svg" width="20" height="20" fill="none" viewBox="0 0 20 20"><path fill="#ff3d00" d="M4.921 15 5.8 6.794q.13-.318 1.157-.582A16 16 0 0 1 8.971 6h2.015Q12 6.042 13 6.212q1.03.265 1.157.582L15.079 15M7 13.729l.514-4.818Z"/><path stroke="#fff" stroke-linecap="round" stroke-linejoin="round" d="M4.921 15 5.8 6.794q.13-.318 1.157-.582A16 16 0 0 1 8.971 6h2.015Q12 6.042 13 6.212q1.03.265 1.157.582L15.079 15M7 13.729l.514-4.818"/><path fill="#2651ff" d="M15.501 16h-11a.5.5 0 0 0 0 1h11a.5.5 0 0 0 0-1"/><path stroke="#fff" d="M15.501 15.5h-11a1 1 0 1 0 0 2h11a1 1 0 1 0 0-2Z"/><path stroke="#ffa200" stroke-linecap="round" d="m3.501 4.5 1 1M16.501 4.5l-1 1M10.001 2.5v2M18.501 10.5h-2M3.5 10.5h-2"/></svg>
